X: 10150
T: Dingieshowe Dancers, The
R: reel
M: 4/4
K: Dmajor
D3 D A2 FD|A2 FD G2 EC|DE FD G2 FG|A3 A E2 C2|
D3 D A2 FD|A2 FD G2 EC|DEFD G2 FG|AA EC D2 A|
dA dA B2 AG|GE FD E2 DC|D2 EF G2 FG|A3 A E2 C2|
dA dA B2 AG|GE FD E2 DC|D2 EF G2 FG|AA EC D3 e|
fa ge fd AD|dA Ad cd eg|fe de fa fd|g3 g e2 cA|
fa ge fd AD|dA Ad cd eg|fe de fa fd|gg ec d3 E|
FD DF DD FD|GD DG AA EC|FD DF DD FD|GG AF EA, CE|
FD DF DD FD|GD DG AA EC|FD DF DD FD|GG EC D4||

